svg/diff-added.svg

<svg height="1024" width="896" xmlns="http://www.w3.org/2000/svg">
  <path d="M512 320h-128v128h-128v128h128v128h128v-128h128v-128h-128v-128z m320-256c-32 0-736 0-768 0s-64 32-64 64 0 736 0 768 32 64 64 64 736 0 768 0 64-32 64-64 0-736 0-768-32-64-64-64z m-64 736c0 16-17 32-32 32s-558 0-576 0-32-12-32-32c0-16 0-560 0-576s16-32 32-32 561 0 576 0 32 16 32 32 0 560 0 576z" />
</svg>

<svg height="1024" width="896" xmlns="http://www.w3.org/2000/svg">
  <path d="M512 320H384v128H256v128h128v128h128V576h128V448H512V320zM832 64H64C0 64 0 128 0 128v768c0 0 0 64 64 64 0 0 704 0 768 0s64-64 64-64V128C896 128 896 64 832 64zM768 800c0 32-32 32-32 32H160c0 0-32 0-32-32V224c0-32 32-32 32-32h576c0 0 32 0 32 32C768 224 768 773.25 768 800z" />
</svg>
